X: 122036
T: Laura Mulhaire's
C: Martin Mulhaire
S: Treoir 37/2
L: 1/8
M: 4/4
R: reel
Q: 1/4 = 180
K: G
Bd | gdBd cBcA | BdAG FDDC | B,CDE FGAB | c2 dB cAFA |
BGGF GDB,D | EC ~C2 DEFG | A^GAB cdeg | fdcA G2 :|
Bd | dggf gdBd | ec ~c2 dBGB | Aaa^g aba=g | fgag fdcA |
BdBd cA ~A2 | BG ~G2 AFDE | FGAB cdeg | fdcA G2 :|
